X:1
T:Title
%%score { 1 | 2 }
L:1/8
Q:1/4=90
M:6/8
K:C
V:1 treble nm="Grand Piano"
V:2 bass 
V:1
 [EG]>[_E^F][=EG] [=FA]2 E | G3 F3 | F>EF B2 A | [FA]3 [EG]3 | [EG]>[FA][EG] [Ec]2 [EG] | %5
w: Francis~A.~Simkins * * * *|||||
 [FA]3 [Fc]3 | [GB]>AG A2 ^F | G6 | d>ed BAG | [Ec]3 [EG]3 | GBA GBA | [FA]3 [EG]3 | %12
w: |||||||
 [Ge]>[Fd][Ec] [Ec][FB][Gc] | [Fd]3 [FA]3 | %14
w: ||
 [EG][Gc][Af] e>[Q:1/4=73]cd[Q:1/4=89][Q:1/4=87][Q:1/4=86][Q:1/4=84][Q:1/4=83][Q:1/4=82][Q:1/4=80][Q:1/4=79][Q:1/4=77][Q:1/4=76][Q:1/4=75][Q:1/4=72][Q:1/4=70][Q:1/4=69] | %15
w: |
 [Ec]6 |] %16
w: |
V:2
 [C,C]>[C,C][C,C] [C,C]2 [C,G,C] | [G,CE]3 [G,B,D]3 | [G,B,D]>[G,B,D][G,B,D] [G,DF]2 [G,B,F] | %3
 [C,C]3 [C,C]3 | [C,C]>[C,C][C,C] [C,G,]2 [C,C] | [F,C]3 [F,A,]3 | %6
 [D,G,]>[D,CD][D,B,D] [D,CD]2 [D,A,D] | [G,B,D]6 | [G,B,G]>[G,CG][G,B,G] [G,DG][G,CF][G,B,F] | %9
 [C,C]3 [C,C]3 | [G,B,F][G,DF][G,CF] [G,B,F][G,DF][G,B,F] | [C,C]3 [C,C]3 | %12
 [C,C]>[C,G,][C,G,] [C,G,][D,G,][E,C] | [F,A,]3 [F,C]3 | %14
 [C,C][E,C][F,C][K:treble] [G,CG]>[G,CE][K:bass][G,,B,F] | [C,C]6 |] %16

